X: 1
T: Galway Bay
M: 4/4
L: 1/8
R: hornpipe
K: Gdor
GA|:~B3 c dcdf|~g3 a gabg|fdbg fdcd|B{c}AGF GFDF|
GFGA BABG|~F3 G AGFD|GABc dcBA|(3BcB G2 G2 z2:|
|: g{a}fdf gabg|gfdf dBGA|~B3 c dcde|fc (3dcB AGFD|
BFdB cFcA|BFdB Acd_e|dfga bagf|d2 g2 g2 z2:|
